X:14
T:Sarv o Bid
C:
S:
A:Iran
D:Marzieh 
Z:Eric Forgeot - http://anamnese.online.fr
M:4/4
L:1/8
Q:3/8=105
K:F
%%%staves {1 2}
V:1
%%vskip 1cm
%%MIDI program 41
%%MIDI transpose -1
%%MIDI control 7 120 %volume
%%MIDI control  100 %pans
z4 
| D2 D2 D2 FE | D2 F2 A4 | D2 F2 AGFE | D2 F2 A4 |:
A2 GA BA GF | B4 G4 | FE FG E4 | G2 FG AG FE | A4 F4 | ED EF D4 :| 
DFAG FEFA | GFGF EDEG | FEFE D^CDF | E2A2 E4 |


